source/img/about-us/context-element-3.svg

<svg width="83" height="119" viewBox="0 0 83 119" fill="none" xmlns="http://www.w3.org/2000/svg">
<g clip-path="url(#clip0)">
<path d="M13.8853 85.8679H9.58181C5.27814 85.8679 1.57515 89.0804 1.57515 95.3046C1.57515 99.0191 3.37654 101.83 6.47918 103.235L0.6743 113.676C0.474182 113.977 0.6743 114.278 0.974638 114.278H3.67688C3.877 114.278 4.07711 114.178 4.17717 113.977L9.48175 103.737H11.3832V113.977C11.3832 114.078 11.4834 114.278 11.6835 114.278H14.0856C14.2857 114.278 14.3858 114.178 14.3858 113.977V86.2694C14.2857 85.9683 14.1857 85.8679 13.8853 85.8679ZM11.3832 101.328H9.78193C2.87624 101.328 3.37654 88.2774 9.48175 88.2774H11.4834V101.328H11.3832Z" fill="#FF0000"/>
<path d="M28.2974 95.3045H25.8955C25.6954 95.3045 25.5951 95.4049 25.5951 95.6057V102.834H21.1914V95.6057C21.1914 95.405 21.0914 95.3045 20.8912 95.3045H18.5892C18.3891 95.3045 18.2891 95.4049 18.2891 95.6057V113.977C18.2891 114.178 18.3891 114.278 18.5892 114.278H20.9913C21.1914 114.278 21.2916 114.178 21.2916 113.977V105.143H25.6952V113.977C25.6952 114.178 25.7953 114.278 25.9955 114.278H28.3974C28.5976 114.278 28.6978 114.178 28.6978 113.977V95.6057C28.5977 95.405 28.4977 95.3045 28.2975 95.3045H28.2974ZM82.3426 111.769C82.3426 111.668 82.2425 111.668 82.1425 111.668C81.1416 111.668 75.0365 114.58 75.0365 104.942C75.0365 100.726 76.6378 94.8028 80.441 98.3164C80.541 98.4168 80.6411 98.4168 80.7412 98.4168C80.8412 98.4168 80.9413 98.3164 81.0415 98.1157L82.0423 96.409C82.1423 96.3086 82.1423 96.2083 82.1423 96.1079C82.1423 95.9072 81.9422 95.8066 81.7421 95.7063C75.1366 92.3934 71.7338 98.5172 71.7338 105.645C71.7338 114.881 78.4393 116.186 82.2424 113.375C82.4425 113.275 82.4425 113.074 82.4425 112.974L82.3426 111.769ZM65.9289 103.838L70.5327 95.5055C70.6328 95.405 70.5327 95.2043 70.4327 95.2043H68.1307C67.4301 95.2043 67.23 95.405 67.0297 95.907C66.8296 96.409 63.4268 103.537 63.0264 103.838V95.5054C63.0264 95.4049 62.9263 95.2041 62.8263 95.2041H60.3241C60.2241 95.2041 60.124 95.3045 60.124 95.5054V113.977C60.124 114.078 60.2241 114.278 60.3241 114.278H62.8263C63.0264 114.278 63.0264 114.178 63.0264 113.977V104.44C63.3267 104.641 67.5302 113.375 67.6302 113.676C67.8303 114.077 68.2307 114.278 68.7312 114.278H71.2333C71.4334 114.278 71.4334 114.178 71.3334 113.977L65.9289 103.838ZM44.0105 111.869H43.51C42.9097 111.869 42.8095 111.669 42.8095 111.166V95.5054C42.8095 95.3046 42.7094 95.2041 42.6094 95.2041H34.9029C34.7028 95.2041 34.6027 95.3045 34.6027 95.5054C34.6027 99.7217 34.7028 106.749 31.9003 111.869H31.0998C30.8997 111.869 30.7995 111.969 30.7995 112.17V117.692C30.7995 117.892 30.9996 117.993 31.0998 117.993H32.9012C33.3015 117.993 33.5017 117.692 33.5017 117.391V114.278H41.6086V117.692C41.6086 117.792 41.7087 117.993 41.9088 117.993H43.9104C44.1106 117.993 44.4109 117.792 44.4109 117.391V112.17C44.3108 111.969 44.2108 111.869 44.0107 111.869L44.0105 111.869ZM39.8071 111.869H34.2021C35.8036 109.259 37.3048 105.043 37.3048 97.6137H39.8069V111.869H39.8071ZM51.817 94.8028C47.7136 94.8028 45.812 99.9226 45.812 105.544C45.812 114.781 52.2174 116.186 56.621 113.475C56.8211 113.375 56.8211 113.275 56.8211 113.174L56.5209 111.869C56.5209 111.769 56.4209 111.669 56.2208 111.669C54.6193 111.669 49.0147 114.479 49.0147 105.344C51.0164 105.545 51.0164 105.545 57.0214 105.545C56.9213 100.927 56.421 94.8028 51.817 94.8028ZM49.115 103.235C49.115 95.9067 53.9189 94.5012 53.9189 103.034C51.8172 103.034 50.9165 103.034 49.115 103.235Z" fill="black"/>
</g>
<path d="M6.8177 0.972168H76.5702C78.1014 0.972168 79.345 2.2205 79.345 3.76323V69.6264C79.345 71.1691 78.1014 72.4174 76.5702 72.4174H6.8177C5.28653 72.4174 4.04297 71.1691 4.04297 69.6264V3.76323C4.04297 2.2205 5.28653 0.972168 6.8177 0.972168Z" fill="#FAFAFA" stroke="black" stroke-width="0.5"/>
<path d="M21.0996 29.5266H17.0156V64.8252H21.0996V29.5266Z" fill="#E8505B"/>
<path d="M39.6777 26.6638H35.5938V64.8311H39.6777V26.6638Z" fill="#E8505B"/>
<path d="M58.916 21.8188H54.832V64.8309H58.916V21.8188Z" fill="#E8505B"/>
<path d="M49.8789 47.6375H45.7949V64.825H49.8789V47.6375Z" fill="#263238"/>
<path d="M25.8653 25.7466H21.7812V64.8311H25.8653V25.7466Z" fill="#274684"/>
<path d="M44.7715 17.5593H40.6875V64.8313H44.7715V17.5593Z" fill="#274684"/>
<path d="M69.4531 17.5593H65.3691V64.8313H69.4531V17.5593Z" fill="#263238"/>
<path d="M64.3731 8.22046H60.2891V64.825H64.3731V8.22046Z" fill="#274684"/>
<path d="M30.8653 40.0225H26.7812V64.825H30.8653V40.0225Z" fill="#263238"/>
<path d="M75.2997 66.9672C75.2997 67.0595 60.7209 67.1272 42.7379 67.1272C24.7548 67.1272 10.1699 67.0595 10.1699 66.9672C10.1699 66.8748 24.7486 66.8071 42.7379 66.8071C60.7271 66.8071 75.2997 66.881 75.2997 66.9672Z" fill="#263238"/>
<path d="M10.7707 58.552H8.2793V59.4939H10.7707V58.552Z" fill="#263238"/>
<path d="M10.7707 45.9878H8.2793V46.9297H10.7707V45.9878Z" fill="#263238"/>
<path d="M10.7707 22.3423H8.2793V23.2842H10.7707V22.3423Z" fill="#263238"/>
<path d="M10.7707 10.4614H8.2793V11.4033H10.7707V10.4614Z" fill="#263238"/>
<path d="M10.8938 34.168H8.40234V35.1098H10.8938V34.168Z" fill="#263238"/>
<defs>
<clipPath id="clip0">
<rect width="82.0057" height="32.2778" fill="white" transform="translate(0.556641 85.8679)"/>
</clipPath>
</defs>
</svg>

<svg width="83" height="119" fill="none" xmlns="http://www.w3.org/2000/svg"><g clip-path="url(#clip0)"><path d="M13.885 85.868H9.582c-4.304 0-8.007 3.212-8.007 9.437 0 3.714 1.802 6.525 4.904 7.93L.674 113.676c-.2.301 0 .602.3.602h2.703c.2 0 .4-.1.5-.301l5.305-10.24h1.901v10.24c0 .101.1.301.3.301h2.403c.2 0 .3-.1.3-.301V86.269c-.1-.3-.2-.401-.5-.401zm-2.502 15.46H9.782c-6.906 0-6.405-13.05-.3-13.05h2.001v13.05h-.1z" fill="red"/><path d="M28.297 95.305h-2.402c-.2 0-.3.1-.3.3v7.229h-4.404v-7.228c0-.201-.1-.301-.3-.301H18.59c-.2 0-.3.1-.3.3v18.372c0 .201.1.301.3.301h2.402c.2 0 .3-.1.3-.301v-8.834h4.404v8.834c0 .201.1.301.3.301h2.402c.2 0 .3-.1.3-.301V95.606c-.1-.201-.2-.301-.4-.301zm54.046 16.464c0-.101-.1-.101-.2-.101-1.001 0-7.106 2.912-7.106-6.726 0-4.216 1.6-10.14 5.404-6.626.1.1.2.1.3.1.1 0 .2-.1.3-.3l1.001-1.707c.1-.1.1-.2.1-.301 0-.2-.2-.301-.4-.402-6.605-3.313-10.008 2.811-10.008 9.939 0 9.236 6.705 10.541 10.508 7.73.2-.1.2-.301.2-.401l-.1-1.205zm-16.414-7.931l4.604-8.332c.1-.101 0-.302-.1-.302H68.13c-.7 0-.901.201-1.101.703-.2.502-3.603 7.63-4.004 7.931v-8.333c0-.1-.1-.3-.2-.3h-2.502c-.1 0-.2.1-.2.3v18.472c0 .101.1.301.2.301h2.502c.2 0 .2-.1.2-.301v-9.537c.3.201 4.504 8.935 4.604 9.236.2.401.6.602 1.101.602h2.502c.2 0 .2-.1.1-.301l-5.404-10.139zm-21.919 8.031h-.5c-.6 0-.7-.2-.7-.703v-15.66c0-.201-.1-.302-.2-.302h-7.707c-.2 0-.3.1-.3.301 0 4.217.1 11.244-2.703 16.364h-.8c-.2 0-.3.1-.3.301v5.522c0 .2.2.301.3.301h1.8c.4 0 .6-.301.6-.602v-3.113h8.108v3.414c0 .1.1.301.3.301h2.001c.2 0 .5-.201.5-.602v-5.221c-.1-.201-.2-.301-.4-.301zm-4.203 0h-5.605c1.602-2.61 3.103-6.826 3.103-14.255h2.502v14.255zm12.01-17.066c-4.103 0-6.005 5.12-6.005 10.741 0 9.237 6.405 10.642 10.809 7.931.2-.1.2-.2.2-.301l-.3-1.305c0-.1-.1-.2-.3-.2-1.602 0-7.206 2.81-7.206-6.325 2.001.201 2.001.201 8.006.201-.1-4.618-.6-10.742-5.204-10.742zm-2.702 8.432c0-7.328 4.804-8.734 4.804-.201-2.102 0-3.002 0-4.804.201z" fill="#000"/></g><path d="M6.818.972H76.57a2.783 2.783 0 012.775 2.791v65.863a2.783 2.783 0 01-2.775 2.791H6.818a2.783 2.783 0 01-2.775-2.79V3.762A2.783 2.783 0 016.818.973z" fill="#FAFAFA" stroke="#000" stroke-width=".5"/><path d="M21.1 29.527h-4.084v35.298H21.1V29.527zm18.578-2.863h-4.084V64.83h4.084V26.664zm19.238-4.845h-4.084V64.83h4.084V21.819z" fill="#E8505B"/><path d="M49.879 47.638h-4.084v17.187h4.084V47.637z" fill="#263238"/><path d="M25.865 25.747h-4.084V64.83h4.084V25.747zm18.907-8.187h-4.084v47.27h4.084V17.56z" fill="#274684"/><path d="M69.453 17.56H65.37v47.27h4.084V17.56z" fill="#263238"/><path d="M64.373 8.22H60.29v56.605h4.084V8.22z" fill="#274684"/><path d="M30.865 40.023h-4.084v24.802h4.084V40.022zM75.3 66.967c0 .093-14.58.16-32.562.16-17.983 0-32.568-.067-32.568-.16 0-.092 14.579-.16 32.568-.16 17.99 0 32.562.074 32.562.16zm-64.53-8.415H8.28v.942h2.49v-.942zm0-12.564H8.28v.942h2.49v-.942zm0-23.646H8.28v.942h2.49v-.942zm0-11.881H8.28v.942h2.49v-.942zm.124 23.707H8.402v.942h2.492v-.942z" fill="#263238"/><defs><clipPath id="clip0"><path fill="#fff" transform="translate(.557 85.868)" d="M0 0h82.006v32.278H0z"/></clipPath></defs></svg>
